svgs/duotone/cart-plus.svg

<svg xmlns="http://www.w3.org/2000/svg" viewBox="0 0 576 512"><!--! Font Awesome Pro 6.2.0 by @fontawesome - https://fontawesome.com License - https://fontawesome.com/license (Commercial License) Copyright 2022 Fonticons, Inc. --><path d="M170.7 288H459.2c32.6 0 61.1-21.8 69.5-53.3l41-152.3C576.6 57 557.4 32 531.1 32h-411c2 4.2 3.5 8.8 4.4 13.5L170.7 288zM252 160c0-11 9-20 20-20h44V96c0-11 9-20 20-20s20 9 20 20v44h44c11 0 20 9 20 20s-9 20-20 20H356v44c0 11-9 20-20 20s-20-9-20-20V180H272c-11 0-20-9-20-20z" class="fa-secondary"/></svg>

<svg xmlns="http://www.w3.org/2000/svg" viewBox="0 0 576 512"><!--! Font Awesome Pro 6.2.0 by @fontawesome - https://fontawesome.com License - https://fontawesome.com/license (Commercial License) Copyright 2022 Fonticons, Inc. --><defs><style>.fa-secondary{opacity:.4}</style></defs><path class="fa-primary" d="M0 24C0 10.75 10.75 0 24 0H96C107.5 0 117.4 8.19 119.6 19.51L179.9 336H488C501.3 336 512 346.7 512 360C512 373.3 501.3 384 488 384H159.1C148.5 384 138.6 375.8 136.4 364.5L76.14 48H24C10.75 48 0 37.25 0 24V24zM224 464C224 490.5 202.5 512 176 512C149.5 512 128 490.5 128 464C128 437.5 149.5 416 176 416C202.5 416 224 437.5 224 464zM416 464C416 437.5 437.5 416 464 416C490.5 416 512 437.5 512 464C512 490.5 490.5 512 464 512C437.5 512 416 490.5 416 464zM252 160C252 148.1 260.1 140 272 140H316V96C316 84.95 324.1 76 336 76C347 76 356 84.95 356 96V140H400C411 140 420 148.1 420 160C420 171 411 180 400 180H356V224C356 235 347 244 336 244C324.1 244 316 235 316 224V180H272C260.1 180 252 171 252 160z"/><path class="fa-secondary" d="M121.1 32H541.8C562.1 32 578.3 52.25 572.6 72.66L518.6 264.7C514.7 278.5 502.1 288 487.8 288H170.7L121.1 32zM272 180H316V224C316 235 324.1 244 336 244C347 244 356 235 356 224V180H400C411 180 420 171 420 160C420 148.1 411 140 400 140H356V96C356 84.95 347 76 336 76C324.1 76 316 84.95 316 96V140H272C260.1 140 252 148.1 252 160C252 171 260.1 180 272 180z"/></svg>
